X: 072
T: l' Oncle A quick step for the fife
%R: march, reel
Z: 2017 John Chambers <jc:trillian.mit.edu>
B: John Treat - "Gamut for the Fifes", 1779, p.6 #2
F: https://archive.org/details/GamutFortheFifes
M: 2/4
L: 1/8
K: G
% - - - - - - - - - - - - - - - - - - - - - - - - -
|:\
Bcd[fB] | gedB | cABG | F2ED |\
Bcd[fB] | gedB | cAGF | G4 :|
|:\
BdBd | cece | dg fa | g2g2 |\
BdBd | cece | AcBA | G4 :|
% - - - - - - - - - - - - - - - - - - - - - - - - -

%%sep 1 1 500
%%sep 1 1 500

